picto/accessible-right.svg

<svg class="color-immutable" width="24" height="24" viewBox="0 0 24 24" fill="none" xmlns="http://www.w3.org/2000/svg"><path d="M0 22.5V1.5C0 0.675 0.675 0 1.5 0H22.5C23.325 0 24 0.675 24 1.5V22.5C24 23.325 23.325 24 22.5 24H1.5C0.675 24 0 23.325 0 22.5Z" fill="#2D327D"/><path d="M11.108 4.62901C11.108 5.51101 10.393 6.22701 9.51002 6.22701C8.62802 6.22701 7.91202 5.51201 7.91202 4.62901C7.91202 3.74701 8.62702 3.03101 9.51002 3.03101C10.392 3.03101 11.108 3.74601 11.108 4.62901Z" fill="white"/><path d="M18.271 18.083L16.11 13.002C15.96 12.65 15.616 12.422 15.234 12.422H11.545L11.347 10.834H14.401C14.723 10.834 14.983 10.573 14.983 10.252C14.983 9.93101 14.723 9.67001 14.401 9.67001H11.202L10.96 7.72601C10.87 7.00101 10.209 6.48601 9.48401 6.57701C8.75901 6.66701 8.24401 7.32801 8.33501 8.05301L8.96901 13.141C8.97701 13.202 9.00201 13.356 9.00201 13.376C9.00201 13.902 9.42801 14.329 9.95501 14.329H14.606L16.52 18.83C16.674 19.192 17.027 19.41 17.397 19.41C17.521 19.41 17.648 19.385 17.769 19.334C18.251 19.127 18.477 18.567 18.271 18.083Z" fill="white"/><path d="M15.368 17.435C14.582 18.766 13.135 19.659 11.478 19.659C8.98401 19.659 6.96201 17.637 6.96201 15.143C6.96201 13.89 7.47301 12.756 8.29701 11.938L8.11701 10.386C6.62601 11.441 5.65201 13.178 5.65201 15.143C5.65201 18.36 8.26001 20.968 11.477 20.968C13.295 20.968 14.918 20.135 15.986 18.831L15.368 17.435Z" fill="white"/></svg>

<svg class="color-immutable" width="24" height="24" viewBox="0 0 24 24" fill="none" xmlns="http://www.w3.org/2000/svg"><g clip-path="url(#a)"><path d="M0 22.5v-21C0 .675.675 0 1.5 0h21c.825 0 1.5.675 1.5 1.5v21c0 .825-.675 1.5-1.5 1.5h-21C.675 24 0 23.325 0 22.5Z" fill="#2D327D"/><path d="M11.108 4.629a1.598 1.598 0 1 1-3.196 0 1.598 1.598 0 0 1 3.196 0ZM18.271 18.083l-2.161-5.081a.952.952 0 0 0-.876-.58h-3.689l-.198-1.588h3.054a.582.582 0 1 0 0-1.164h-3.199l-.242-1.944a1.322 1.322 0 1 0-2.625.327l.634 5.088c.008.061.033.215.033.235 0 .526.426.953.953.953h4.651l1.914 4.501a.954.954 0 0 0 1.249.504.956.956 0 0 0 .502-1.251Z" fill="#fff"/><path d="M15.368 17.435a4.516 4.516 0 1 1-7.071-5.497l-.18-1.552a5.825 5.825 0 1 0 7.869 8.445l-.618-1.396Z" fill="#fff"/></g><defs><clipPath id="a"><path fill="#fff" d="M0 0h24v24H0z"/></clipPath></defs></svg>
